!!!COM: Olivier (Eugène Prosper Charles) Messiaen
!!!OTL: [T751_Mes-20/122/1-9]
**kern	**dynam	**kern	**dynam
*grp:A	*grp:A	*grp:B	*grp:B
*part1	*	*part1	*part1
*staff2	*	*staff1	*staff1
*I"Piano	*	*	*
*I'Pno.	*	*	*
!!pagebreak:original
*clefF4	*	*clefF4	*
*k[]	*	*k[]	*
*C:	*	*C:	*
*M2/4	*	*M2/4	*
*8ba	*	*	*
=1	=1	=1	=1
*ped	*	*	*
!	!	!LO:TX:t=Modéré ([quarter]=72)	!
!	!	!LO:TX:b:t=(laissez résonner)	!
!	!	!	!LO:DY:b
!LO:TX:b:t=(comme un Tam-Tam) (Valeurs progressivement accélérées)	!LO:DY:a	!	!
2ryy	4ryy	8B-XL 8d#X 8e	mf
.	.	8c#X 8gn 8a	.
.	.	8B- 8d# 8e	.
.	.	8EJ 8A 8B-X	.
=2	=2	=2	=2
2ryy	.	8B-XL 8d#X 8e	.
.	.	8c#X 8gn 8a	.
.	.	8B- 8d# 8e	.
.	.	8EJ 8A 8B-X	.
=3	=3	=3	=3
!	!LO:DY:a	!	!
2ryy	4ryy	8B-XL 8d#X 8e	mf
.	.	8c#X 8gn 8a	.
.	.	8B- 8d# 8e	.
.	.	8EJ 8A 8B-X	.
=4	=4	=4	=4
4ryy	.	8B-XL 8d#X 8e	.
.	.	8c#X 8gn 8a	.
8.ryy	.	8B- 8d# 8e	.
.	.	8EJ 8A 8B-X	.
16ryy	.	.	.
=5	=5	=5	=5
2ryy	.	8B-XL 8d#X 8e	.
.	.	8c#X 8gn 8a	.
.	.	8B- 8d# 8e	.
.	.	8EJ 8A 8B-X	.
!!linebreak:original
=6	=6	=6	=6
4ryy	.	8B-XL 8d#X 8e	.
.	.	8c#X 8gn 8a	.
16ryy	.	8B- 8d# 8e	.
8.ryy	.	.	.
.	.	8EJ 8A 8B-X	.
=7	=7	=7	=7
2ryy	.	8B-XL 8d#X 8e	.
.	.	8c#X 8gn 8a	.
.	.	8B- 8d# 8e	.
.	.	8EJ 8A 8B-X	.
=8	=8	=8	=8
8ryy	.	8B-XL 8d#X 8e	>
4.ryy	4ryy	8c#X 8gn 8a	.
.	.	8B- 8d# 8e	.
.	.	8EJ 8A 8B-X	.
=9	=9	=9	=9
4.ryy	.	8B-XL 8d#X 8e	.
.	.	8c#X 8gn 8a	.
.	.	8B- 8d# 8e	.
8ryy	.	8EJ 8A 8B-X	.
*X8ba	*	*	*
=||	=||	=||	=||
*-	*-	*-	*-
!!!system-decoration: [({(s1,s2)})]
